X:1
T:Title
%%score { ( 1 4 ) | ( 2 3 ) }
L:1/8
Q:1/4=100
M:6/4
K:F
V:1 treble nm="Grand Piano"
V:4 treble 
V:2 bass 
V:3 bass 
V:1
 [CA]2 G2 F2 [A,F]2 G2 A2 | [DB]2 F2 G2 [CA]6 | [B,G]2 E2 F2 [B,G]2 B2 [DB]2 | %3
w: Joseph~S.~Waugh * * * * *|||
 [DB]2 A2 _A2 [C=A]6 | [CA]2 F2 B2 [CA]2 F2 A2 | [FA]2 [EB]2 [_Ec]2 [DB]6 | %6
w: |||
 [Fd]2 c2 B2 [CA]2 F2 F2 | z4 E2 z6 | [B,G]2 G2 G2 G2 [A,F]2 [B,G]2 | [CA]2 [A,F]2 [B,D]2 [A,C]6 | %10
w: ||||
 [B,G]2 G2 G2 G2 [A,F]2 [B,G]2 | [DB]2 [CA]2 [=B,_A]2 [C=A]6 | [CA]2 _A2 =A2 c2 .c4 | %13
w: |||
 B2 F2 G2 [CA]6 | [Fd]2 c2 B2 [CA]2 F2 F2 | [B,G]2 D2 E2 [F,A,F]6 |] %16
w: |||
V:2
 z2 B,2 A,2 z2 B,2 C2 | z2 D2 ^C2 [F,,F,]6 | z2 G,2 A,2 C,2- [C,-D]2 [F,,C,]2 | %3
 z2 C2 =B,2 [F,,F,]6 | z2 A,2 D2 z2 A,2 C2 | [F,,F,]2 [G,,G,]2 [A,,A,]2 [B,,B,]6 | %6
 B,2- [B,E]2 D2 F,2- [F,A,]2 [C,A,]2 | z2 B,2 .C2 [F,,F,]6 | C,2 [E,B,]2 [G,B,]2 [C,B,]2 [F,,C,]4 | %9
 F,2 C,2 D,F, [F,,F,]6 | C,2 [E,B,]2 [G,B,]2 [C,B,]2 [F,,C,]2 [C,E,]2 | %11
 [B,,F,]2 [F,,F,]4 [F,,F,]6 | z2 =B,2 C2 _E2 .E4 | D2 D2 ^C2 [F,,F,]6 | %14
 B,,2- [B,,-E]2 [B,,F,D]2 F,2- [F,A,]2 [C,A,]2 | z2 B,2 CB, F,,6 |] %16
V:3
 [F,,F,]6 [F,,F,]6 | [B,,F,]6 z6 | [C,,C,]6 .C,,6 | [F,,F,]6 z6 | [F,,F,]6 [F,,F,]6 | x12 | %6
 B,,6 F,,6 | [C,,C,]6 z6 | .C,,12 | .F,,6 z6 | .C,,12 | x12 | [F,,F,]6 .[F,A,]6 | [F,B,]6 z6 | %14
 .B,6 F,,6 | [C,,C,]6 z6 |] %16
V:4
 x12 | x12 | x12 | x12 | x12 | x12 | x12 | [B,G]2 .D3 B, [A,F]6 | x12 | x12 | x12 | x12 | x12 | %13
 x12 | x12 | x12 |] %16

